X:1
T:Beebe, 11.10.11.10
T:Beebe, 11.10.11.10
T:Walter Olivant Wilkinson, 1895
T:Public Domain Courtesy of the Cyber Hymnal™
C:Walter Olivant Wilkinson, 1895
Z:Public Domain
Z:Courtesy of the Cyber Hymnal™
%%score ( 1 2 ) ( 3 4 )
L:1/8
Q:1/4=115
M:4/4
K:G
V:1 treble 
V:2 treble 
V:3 bass 
V:4 bass 
V:1
 [DG]4 [EA]2 [GB]2 | [Gc]3 [Gc] [GB]4 | [EA]4 [DA]2 [FB]2 | G4 [DG]4 | [GB]4 [GB]2 [GB]2 | %5
 [Gc]3 [Fc] [GB]4 | [EA]4 [GB]2 [GA]2 | [FA]8 | [Gd]4 [Ee]2 [Gd]2 | [Ed]3 [Ec] [^DB]4 | %10
 [DB]4 [Ec]2 [DB]2 | [DB]4 [^CA]4 | [DA]4 [DB]2 [DA]2 | (d2 B2) [EG]2 [_Ec]2 | B4 A3 z G | G8 |] %16
V:2
 x8 | x8 | x8 | (G2 E2) x4 | x8 | x8 | x8 | x8 | x8 | x8 | x8 | x8 | x8 | D4 x4 | (D2 G2) G2 F2 x | %15
 G8 |] %16
V:3
 [G,B,]4 [G,C]2 [G,D]2 | (E2 z) [G,D]4 x | [G,^C]4 [F,D]2 [D,D]2 | (B,2 C2) [G,,B,]4 | %4
 [G,D]4 [G,=F]2 [G,F]2 | (E2 z) [G,D]4 x | [A,^C]4 [A,,C]2 [A,,C]2 | [D,D]8 | %8
 [B,,D]4 [C,G,]2 [B,,G,]2 | [A,,A,]3 [A,,A,] [B,,F,]4 | [E,^G,]4 [E,F,]2 [E,G,]2 | %11
 [A,,^G,]4 [A,,A,]4 | [D,F,]4 [C,F,]2 [C,F,]2 | [B,,G,]4 [C,G,]2 [C,A,]2 | %14
 (B,2 D2) [D,^C]2 [D,=C]2 x | [G,,G,B,]8 |] %16
V:4
 x8 | C,3 (_E2 C,) x2 | x8 | G,4 x4 | x8 | G,3 (_E2 G,) x2 | x8 | x8 | x8 | x8 | x8 | x8 | x8 | %13
 x8 | D,4 x5 | x8 |] %16

